X: 4
T: A Fadimem Hadi Senle Kaçalım
C: (Anonim)
O: Turkey
F: http://compmusic.upf.edu/node/140
N: huseyni--turku--aksak--a_fadimem--
N: makam= huseyni
N: form= turku
N: usul= aksak = 9/8
M: 9/8
L: 1/16
K: C _2/4B ^3/4f  
Q: 1/4=198
%%MIDI tuningsystem comma53
g2f2 g2f2 e4 e4 d2 | e2 d2e2 c2d4d4z2  | \
w:  ARANAĞME  |   | 
g2f2 g2f2 e4 e4 d2 | 
w:  ARANAĞME  | 
e2 d2e2 c2d4d4z2  | d2c2 d2g2 =f2e2 d2c2 B2 | \
w:   |   | 
c2 d2B2 G2A4A4z2  | 
w:   | 
d2c2 d2g2 =f2e2 d2c2 B2 | c2 d2B2 G2A4A4z2  | \
w:   |   | 
z4 A2A2 A4 e6 | 
w:  A  Fa di mem   | 
z4e2 e2e4e4d2  | d2d2 c2e2 d2c2 d4 z2 | \
w:  ha di  sen le   |  ka ça *  *  lım    | 
z4A2 A2A4e6  | z4 e2e2 e4 e4 d2 | 
w:  A  Fa di mem   |  ha di  sen le   | 
d2 d2c2 e2d2 c2d4z2  | e4 e2d2 d2c2 d4 c2 | \
w:  ka ça *  *  lım    |  Bey ce  *  pa *  za  | 
e2 d2c2 B2d4c2 B2c2  | 
w:  rı *  na  *  dük kân   | 
B2A6 A8 z2 | e4e2 d2d2 c2d4c2  | e2d2 c2B2 d4 c2B2 c2 | \
w:  a ça lım    |  Bey ce  *  pa *  za  |  rı *  na  *  dük kân   | 
B2 A6A8z2  | 
w:  a ça lım    | 
c4 B2A2 A2A2 A4 G2 | c4B2 A2A8z2  | c4 B2A2 A2G2 d4 B2 | \
w:  Ay  lay  *  li lam   |  ay  lay  *  lam    |  Ay  lay  *  li lam   | 
c4B2 A2A8z2  | 
w:  ay  lay  *  lam    | 
c4 B2A2 A2A2 A4 G2 | c4B2 A2A8z2  | c4 B2A2 A2G2 d4 B2 | \
w:  Ay  lay  *  li lam   |  ay  lay  *  lam    |  Ay  lay  *  li lam   | 
c4B2 A2A8z2  | 
w:  ay  lay  *  lam    | 
g2f2 g2f2 e4 e4 d2 | e2 d2e2 c2d4d4z2  | \
w:  ARANAĞME  |   | 
g2f2 g2f2 e4 e4 d2 | 
w:  ARANAĞME  | 
e2 d2e2 c2d4d4z2  | d2c2 d2g2 =f2e2 d2c2 B2 | \
w:   |   | 
c2 d2B2 G2A4A4z2  | 
w:   | 
d2c2 d2g2 =f2e2 d2c2 B2 | c2 d2B2 G2A4A4z2  | \
w:   |   | 
z4 A2A2 A4 e6 | 
w:  A  Fa di mem   | 
z4e2 e2e4e4d2  | d2d2 c2e2 d2c2 d4 z2 | \
w:  ha di  sen le   |  ka ça *  *  lım    | 
z4A2 A2A4e6  | z4 e2e2 e4 e4 d2 | 
w:  A  Fa di mem   |  ha di  sen le   | 
d2 d2c2 e2d2 c2d4z2  | e4 e2d2 d2c2 d4 c2 | \
w:  ka ça *  *  lım    |  Bey ce  *  pa *  za  | 
e2 d2c2 B2d4c2 B2c2  | 
w:  rı *  na  *  dük kân   | 
B2A6 A8 z2 | e4e2 d2d2 c2d4c2  | e2d2 c2B2 d4 c2B2 c2 | \
w:  a ça lım    |  Bey ce  *  pa *  za  |  rı *  na  *  dük kân   | 
B2 A6A8z2  | 
w:  a ça lım    | 
c4 B2A2 A2A2 A4 G2 | c4B2 A2A8z2  | c4 B2A2 A2G2 d4 B2 | \
w:  Ay  lay  *  li lam   |  ay  lay  *  lam    |  Ay  lay  *  li lam   | 
c4B2 A2A8z2  | 
w:  ay  lay  *  lam    | 
c4 B2A2 A2A2 A4 G2 | c4B2 A2A8z2  | c4 B2A2 A2G2 d4 B2 | \
w:  Ay  lay  *  li lam   |  ay  lay  *  lam    |  Ay  lay  *  li lam   | 
c4B2 A2A8z2  | 
w:  ay  lay  *  lam    | 
|


